X: 1
T: IRISH AMERICAN -- JIG
C: Frank Livingston
B: Ryan's Mammoth Collection of Fiddle Tunes
R: jig
M: 6/8
L: 1/8
Z: Contributed 20010707133706 by John Chambers jmchambers:rcn.net
K: G
 vd"4"ed dBG | dBG "0"efg | d"4"ed dBG | ABA AFD \
| d"4"ed dBG | dBG "0"efg | d"4"ed dBG | AGG G2z :|
|: vgfe gfe | gfe gab | fed fed  | fed fga \
|   gfe gfe | gfe gab | gag fe^d | fee e2z :|
